OTIS.cube
#Generated with IWLTBAP LUT Generator
#Website: http://luts.iwltbap.com
TITLE "PHOTOSHOPLUT125_NEUTRAL125_OTIS"
#LUT size
LUT_3D_SIZE 25
#LUT data points
0.019608 0.000000 0.000000
0.039216 0.000000 0.000000
0.078431 0.000000 0.000000
0.129412 0.000000 0.000000
0.180392 0.000000 0.000000
0.227451 0.000000 0.000000
0.266667 0.000000 0.000000
0.286275 0.000000 0.000000
0.356863 0.000000 0.000000
0.384314 0.000000 0.000000
0.423529 0.000000 0.000000
0.466667 0.000000 0.000000
0.525490 0.000000 0.000000
0.568627 0.000000 0.000000
0.607843 0.000000 0.000000
0.635294 0.000000 0.000000
0.686275 0.000000 0.000000
0.717647 0.000000 0.000000
0.760784 0.000000 0.000000
0.803922 0.000000 0.000000
0.850980 0.000000 0.000000
0.898039 0.000000 0.000000
0.945098 0.000000 0.000000
0.972549 0.003922 0.000000
0.980392 0.000000 0.000000
0.011765 0.031373 0.000000
0.082353 0.003922 0.000000
0.109804 0.011765 0.000000
0.133333 0.000000 0.000000
0.180392 0.007843 0.003922
0.196078 0.019608 0.000000
0.282353 0.003922 0.000000
0.305882 0.003922 0.000000
0.317647 0.003922 0.000000
0.356863 0.003922 0.000000
0.407843 0.003922 0.000000
0.462745 0.003922 0.000000
0.517647 0.003922 0.000000
0.549020 0.007843 0.000000
0.572549 0.007843 0.000000
0.639216 0.000000 0.000000
0.670588 0.011765 0.000000
0.713725 0.015686 0.000000
0.760784 0.011765 0.000000
0.800000 0.000000 0.000000
0.847059 0.000000 0.000000
0.890196 0.000000 0.000000
0.921569 0.011765 0.000000
0.949020 0.023529 0.000000
1.000000 0.015686 0.007843
0.007843 0.047059 0.000000
0.066667 0.035294 0.000000
0.109804 0.070588 0.000000
0.109804 0.054902 0.003922
0.196078 0.054902 0.000000
0.207843 0.043137 0.000000
0.270588 0.054902 0.000000
0.290196 0.050980 0.000000
0.321569 0.054902 0.000000
0.376471 0.054902 0.000000
0.431373 0.050980 0.000000
0.482353 0.054902 0.000000
0.521569 0.054902 0.000000
0.533333 0.054902 0.000000
0.596078 0.058824 0.000000
0.615686 0.058824 0.000000
0.650980 0.058824 0.000000
0.705882 0.058824 0.000000
0.756863 0.054902 0.000000
0.803922 0.058824 0.000000
0.843137 0.058824 0.000000
0.858824 0.058824 0.000000
0.929412 0.054902 0.000000
0.933333 0.054902 0.000000
1.000000 0.054902 0.000000
0.019608 0.098039 0.000000
0.039216 0.090196 0.000000
0.117647 0.066667 0.031373
0.137255 0.109804 0.000000
0.164706 0.105882 0.000000
0.203922 0.090196 0.000000
0.235294 0.098039 0.000000
0.278431 0.101961 0.000000
0.321569 0.101961 0.000000
0.368627 0.090196 0.000000
0.415686 0.090196 0.000000
0.458824 0.094118 0.000000
0.490196 0.101961 0.000000
0.560784 0.094118 0.000000
0.584314 0.094118 0.000000
0.623529 0.094118 0.000000
0.670588 0.090196 0.000000
0.725490 0.098039 0.000000
0.772549 0.094118 0.000000
0.811765 0.094118 0.000000
0.835294 0.094118 0.000000
0.898039 0.082353 0.000000
0.905882 0.086275 0.000000
0.949020 0.101961 0.000000
0.996078 0.098039 0.000000
0.000000 0.125490 0.000000
0.050980 0.121569 0.000000
0.090196 0.133333 0.000000
0.101961 0.137255 0.000000
0.184314 0.137255 0.000000
0.207843 0.137255 0.000000
0.239216 0.141176 0.000000
0.294118 0.141176 0.000000
0.349020 0.141176 0.000000
0.396078 0.141176 0.000000
0.435294 0.141176 0.000000
0.450980 0.141176 0.000000
0.521569 0.133333 0.000000
0.541176 0.137255 0.000000
0.580392 0.137255 0.000000
0.627451 0.133333 0.000000
0.682353 0.137255 0.000000
0.733333 0.133333 0.000000
0.768627 0.137255 0.000000
0.792157 0.137255 0.000000
0.811765 0.101961 0.000000
0.905882 0.137255 0.035294
0.913725 0.125490 0.015686
0.909804 0.152941 0.000000
0.988235 0.211765 0.000000
0.007843 0.172549 0.015686
0.027451 0.172549 0.011765
0.062745 0.172549 0.011765
0.113725 0.172549 0.011765
0.164706 0.176471 0.007843
0.215686 0.168627 0.003922
0.254902 0.172549 0.003922
0.266667 0.172549 0.000000
0.337255 0.172549 0.000000
0.356863 0.176471 0.000000
0.396078 0.176471 0.000000
0.450980 0.176471 0.000000
0.498039 0.176471 0.000000
0.552941 0.176471 0.000000
0.588235 0.176471 0.000000
0.607843 0.176471 0.000000
0.670588 0.164706 0.007843
0.698039 0.176471 0.015686
0.741176 0.180392 0.015686
0.788235 0.176471 0.015686
0.831373 0.168627 0.007843
0.882353 0.164706 0.000000
0.925490 0.176471 0.003922
0.952941 0.180392 0.015686
0.968627 0.200000 0.011765
0.000000 0.250980 0.000000
0.058824 0.223529 0.027451
0.086275 0.231373 0.000000
0.109804 0.219608 0.019608
0.156863 0.227451 0.031373
0.172549 0.239216 0.000000
0.262745 0.227451 0.003922
0.290196 0.231373 0.000000
0.305882 0.231373 0.000000
0.345098 0.231373 0.003922
0.392157 0.235294 0.000000
0.447059 0.235294 0.000000
0.501961 0.231373 0.000000
0.533333 0.235294 0.000000
0.556863 0.235294 0.000000
0.623529 0.231373 0.000000
0.654902 0.239216 0.011765
0.698039 0.243137 0.011765
0.745098 0.243137 0.003922
0.788235 0.227451 0.000000
0.831373 0.227451 0.000000
0.874510 0.231373 0.000000
0.905882 0.239216 0.000000
0.917647 0.235294 0.000000
0.996078 0.227451 0.023529
0.000000 0.262745 0.000000
0.039216 0.250980 0.015686
0.078431 0.282353 0.000000
0.078431 0.270588 0.015686
0.164706 0.266667 0.000000
0.180392 0.262745 0.000000
0.239216 0.266667 0.000000
0.262745 0.266667 0.000000
0.298039 0.270588 0.000000
0.345098 0.266667 0.000000
0.403922 0.270588 0.000000
0.450980 0.266667 0.000000
0.490196 0.266667 0.000000
0.505882 0.270588 0.000000
0.592157 0.258824 0.007843
0.619608 0.258824 0.011765
0.658824 0.258824 0.015686
0.701961 0.254902 0.007843
0.756863 0.254902 0.007843
0.803922 0.254902 0.011765
0.839216 0.250980 0.003922
0.862745 0.254902 0.003922
0.905882 0.274510 0.007843
0.905882 0.270588 0.000000
0.984314 0.274510 0.003922
0.000000 0.309804 0.000000
0.015686 0.305882 0.000000
0.090196 0.286275 0.047059
0.109804 0.325490 0.000000
0.137255 0.321569 0.007843
0.219608 0.301961 0.000000
0.254902 0.309804 0.007843
0.290196 0.317647 0.011765
0.341176 0.313725 0.007843
0.380392 0.305882 0.000000
0.431373 0.301961 0.000000
0.478431 0.309804 0.000000
0.501961 0.317647 0.003922
0.533333 0.309804 0.000000
0.552941 0.305882 0.000000
0.592157 0.309804 0.000000
0.643137 0.309804 0.000000
0.698039 0.309804 0.000000
0.745098 0.309804 0.000000
0.784314 0.309804 0.000000
0.807843 0.309804 0.000000
0.882353 0.309804 0.007843
0.890196 0.317647 0.000000
0.933333 0.329412 0.000000
0.984314 0.325490 0.000000
0.000000 0.356863 0.007843
0.035294 0.349020 0.007843
0.078431 0.364706 0.003922
0.086275 0.368627 0.000000
0.156863 0.356863 0.000000
0.176471 0.352941 0.000000
0.211765 0.356863 0.000000
0.262745 0.352941 0.000000
0.317647 0.352941 0.000000
0.368627 0.356863 0.000000
0.407843 0.356863 0.000000
0.423529 0.356863 0.000000
0.494118 0.349020 0.000000
0.509804 0.349020 0.000000
0.549020 0.349020 0.000000
0.600000 0.352941 0.000000
0.650980 0.349020 0.000000
0.705882 0.349020 0.000000
0.741176 0.352941 0.000000
0.764706 0.352941 0.000000
0.850980 0.360784 0.047059
0.925490 0.388235 0.082353
0.921569 0.368627 0.054902
0.894118 0.356863 0.000000
0.964706 0.372549 0.000000
0.027451 0.407843 0.027451
0.050980 0.407843 0.031373
0.086275 0.407843 0.023529
0.133333 0.407843 0.023529
0.188235 0.407843 0.027451
0.231373 0.403922 0.019608
0.270588 0.403922 0.023529
0.298039 0.403922 0.023529
0.352941 0.396078 0.035294
0.376471 0.396078 0.035294
0.415686 0.396078 0.035294
0.458824 0.392157 0.031373
0.517647 0.396078 0.031373
0.564706 0.396078 0.027451
0.603922 0.396078 0.027451
0.619608 0.400000 0.027451
0.694118 0.403922 0.023529
0.721569 0.407843 0.027451
0.764706 0.419608 0.039216
0.815686 0.415686 0.031373
0.862745 0.403922 0.027451
0.905882 0.403922 0.015686
0.949020 0.407843 0.023529
0.976471 0.419608 0.035294
0.992157 0.388235 0.043137
0.011765 0.443137 0.003922
0.078431 0.419608 0.050980
0.101961 0.423529 0.000000
0.129412 0.419608 0.047059
0.184314 0.419608 0.066667
0.188235 0.431373 0.000000
0.278431 0.419608 0.035294
0.313725 0.431373 0.039216
0.333333 0.431373 0.035294
0.372549 0.431373 0.035294
0.423529 0.431373 0.035294
0.478431 0.431373 0.039216
0.525490 0.435294 0.035294
0.564706 0.431373 0.039216
0.584314 0.431373 0.035294
0.654902 0.427451 0.035294
0.682353 0.431373 0.039216
0.725490 0.443137 0.050980
0.772549 0.435294 0.039216
0.815686 0.427451 0.031373
0.862745 0.423529 0.023529
0.905882 0.427451 0.031373
0.933333 0.439216 0.039216
0.949020 0.435294 0.027451
1.000000 0.431373 0.062745
0.003922 0.462745 0.011765
0.066667 0.450980 0.047059
0.109804 0.482353 0.027451
0.105882 0.470588 0.054902
0.196078 0.466667 0.011765
0.207843 0.454902 0.035294
0.270588 0.466667 0.031373
0.282353 0.466667 0.027451
0.321569 0.462745 0.031373
0.372549 0.466667 0.027451
0.427451 0.466667 0.027451
0.474510 0.466667 0.031373
0.513725 0.466667 0.027451
0.537255 0.466667 0.027451
0.600000 0.470588 0.019608
0.619608 0.474510 0.023529
0.654902 0.470588 0.015686
0.709804 0.470588 0.019608
0.756863 0.474510 0.011765
0.807843 0.466667 0.011765
0.843137 0.470588 0.007843
0.866667 0.470588 0.007843
0.925490 0.470588 0.035294
0.933333 0.466667 0.011765
1.000000 0.466667 0.039216
0.015686 0.509804 0.015686
0.039216 0.505882 0.035294
0.109804 0.482353 0.082353
0.129412 0.521569 0.000000
0.164706 0.513725 0.043137
0.223529 0.513725 0.039216
0.250980 0.517647 0.043137
0.298039 0.525490 0.050980
0.345098 0.525490 0.047059
0.392157 0.517647 0.035294
0.435294 0.513725 0.031373
0.478431 0.517647 0.035294
0.509804 0.525490 0.043137
0.564706 0.509804 0.031373
0.580392 0.505882 0.031373
0.619608 0.509804 0.027451
0.670588 0.505882 0.031373
0.721569 0.509804 0.023529
0.776471 0.509804 0.027451
0.815686 0.509804 0.023529
0.835294 0.513725 0.023529
0.905882 0.509804 0.047059
0.917647 0.517647 0.031373
0.956863 0.529412 0.023529
1.000000 0.521569 0.015686
0.007843 0.552941 0.047059
0.058824 0.549020 0.039216
0.101961 0.560784 0.039216
0.109804 0.568627 0.019608
0.180392 0.556863 0.035294
0.200000 0.552941 0.035294
0.239216 0.552941 0.031373
0.290196 0.552941 0.035294
0.345098 0.552941 0.027451
0.392157 0.556863 0.031373
0.431373 0.556863 0.027451
0.450980 0.552941 0.023529
0.521569 0.549020 0.031373
0.541176 0.549020 0.027451
0.580392 0.549020 0.027451
0.627451 0.549020 0.027451
0.682353 0.549020 0.023529
0.733333 0.552941 0.023529
0.772549 0.552941 0.023529
0.796078 0.552941 0.023529
0.776471 0.549020 0.000000
0.835294 0.556863 0.000000
0.894118 0.596078 0.023529
0.929412 0.607843 0.074510
1.000000 0.576471 0.062745
0.000000 0.615686 0.000000
0.000000 0.615686 0.000000
0.027451 0.615686 0.000000
0.074510 0.615686 0.000000
0.129412 0.615686 0.000000
0.180392 0.611765 0.000000
0.215686 0.611765 0.000000
0.235294 0.611765 0.000000
0.305882 0.611765 0.000000
0.317647 0.611765 0.000000
0.356863 0.611765 0.000000
0.407843 0.611765 0.000000
0.462745 0.611765 0.000000
0.509804 0.611765 0.000000
0.549020 0.611765 0.000000
0.568627 0.607843 0.000000
0.631373 0.607843 0.000000
0.666667 0.615686 0.000000
0.709804 0.619608 0.007843
0.752941 0.619608 0.000000
0.800000 0.611765 0.000000
0.843137 0.607843 0.000000
0.890196 0.615686 0.000000
0.921569 0.619608 0.000000
0.968627 0.619608 0.007843
0.000000 0.670588 0.000000
0.058824 0.647059 0.019608
0.086275 0.650980 0.000000
0.109804 0.643137 0.007843
0.160784 0.647059 0.027451
0.172549 0.662745 0.000000
0.262745 0.647059 0.000000
0.294118 0.658824 0.003922
0.309804 0.658824 0.000000
0.349020 0.658824 0.003922
0.400000 0.658824 0.000000
0.450980 0.658824 0.000000
0.505882 0.658824 0.000000
0.545098 0.658824 0.000000
0.556863 0.658824 0.000000
0.631373 0.654902 0.000000
0.654902 0.662745 0.000000
0.701961 0.666667 0.011765
0.745098 0.662745 0.000000
0.788235 0.654902 0.000000
0.839216 0.650980 0.000000
0.878431 0.654902 0.000000
0.909804 0.666667 0.003922
0.937255 0.678431 0.003922
1.000000 0.666667 0.039216
0.000000 0.701961 0.000000
0.054902 0.686275 0.027451
0.098039 0.717647 0.000000
0.094118 0.705882 0.031373
0.184314 0.701961 0.000000
0.196078 0.698039 0.011765
0.254902 0.705882 0.003922
0.278431 0.705882 0.011765
0.317647 0.705882 0.007843
0.364706 0.709804 0.003922
0.419608 0.705882 0.007843
0.470588 0.709804 0.007843
0.509804 0.709804 0.003922
0.529412 0.705882 0.003922
0.580392 0.713725 0.031373
0.600000 0.709804 0.031373
0.639216 0.709804 0.035294
0.682353 0.709804 0.027451
0.737255 0.705882 0.027451
0.788235 0.709804 0.031373
0.823529 0.705882 0.023529
0.847059 0.705882 0.023529
0.917647 0.709804 0.011765
0.925490 0.705882 0.000000
1.000000 0.709804 0.015686
0.007843 0.752941 0.000000
0.027451 0.745098 0.007843
0.105882 0.721569 0.058824
0.125490 0.764706 0.000000
0.152941 0.760784 0.023529
0.192157 0.745098 0.000000
0.215686 0.752941 0.003922
0.262745 0.760784 0.011765
0.305882 0.756863 0.007843
0.352941 0.749020 0.000000
0.403922 0.745098 0.000000
0.439216 0.752941 0.000000
0.474510 0.760784 0.003922
0.549020 0.749020 0.007843
0.572549 0.749020 0.007843
0.611765 0.749020 0.003922
0.662745 0.749020 0.007843
0.713725 0.749020 0.000000
0.764706 0.752941 0.003922
0.803922 0.752941 0.000000
0.823529 0.749020 0.000000
0.886275 0.737255 0.011765
0.894118 0.741176 0.000000
0.937255 0.756863 0.000000
0.996078 0.752941 0.000000
0.000000 0.780392 0.011765
0.039216 0.776471 0.000000
0.082353 0.792157 0.003922
0.090196 0.792157 0.000000
0.172549 0.792157 0.011765
0.196078 0.792157 0.011765
0.235294 0.792157 0.007843
0.278431 0.792157 0.007843
0.337255 0.796078 0.003922
0.384314 0.792157 0.003922
0.423529 0.792157 0.000000
0.439216 0.796078 0.003922
0.509804 0.788235 0.003922
0.529412 0.792157 0.003922
0.568627 0.792157 0.003922
0.623529 0.792157 0.003922
0.670588 0.792157 0.007843
0.725490 0.792157 0.000000
0.764706 0.792157 0.007843
0.780392 0.792157 0.003922
0.847059 0.788235 0.000000
0.839216 0.729412 0.000000
0.901961 0.752941 0.011765
0.956863 0.772549 0.074510
1.000000 0.701961 0.050980
0.000000 0.815686 0.007843
0.023529 0.815686 0.007843
0.058824 0.819608 0.003922
0.109804 0.811765 0.003922
0.156863 0.815686 0.000000
0.211765 0.815686 0.000000
0.247059 0.811765 0.000000
0.266667 0.815686 0.000000
0.337255 0.815686 0.000000
0.356863 0.819608 0.000000
0.396078 0.819608 0.000000
0.450980 0.819608 0.000000
0.498039 0.823529 0.000000
0.552941 0.819608 0.000000
0.588235 0.823529 0.000000
0.607843 0.823529 0.000000
0.670588 0.807843 0.000000
0.690196 0.815686 0.003922
0.737255 0.823529 0.011765
0.784314 0.823529 0.007843
0.831373 0.815686 0.000000
0.878431 0.807843 0.000000
0.917647 0.815686 0.000000
0.949020 0.823529 0.003922
0.972549 0.839216 0.011765
0.000000 0.886275 0.000000
0.050980 0.862745 0.023529
0.078431 0.870588 0.000000
0.105882 0.862745 0.019608
0.160784 0.866667 0.031373
0.168627 0.882353 0.000000
0.254902 0.862745 0.007843
0.278431 0.866667 0.000000
0.301961 0.866667 0.003922
0.341176 0.866667 0.000000
0.388235 0.866667 0.000000
0.447059 0.870588 0.000000
0.490196 0.866667 0.000000
0.529412 0.866667 0.000000
0.552941 0.866667 0.000000
0.619608 0.862745 0.000000
0.650980 0.870588 0.003922
0.690196 0.878431 0.003922
0.737255 0.870588 0.003922
0.784314 0.862745 0.000000
0.827451 0.858824 0.000000
0.874510 0.866667 0.000000
0.894118 0.874510 0.003922
0.929412 0.882353 0.003922
1.000000 0.878431 0.043137
0.000000 0.913725 0.000000
0.043137 0.901961 0.023529
0.090196 0.929412 0.003922
0.086275 0.921569 0.027451
0.176471 0.917647 0.000000
0.188235 0.905882 0.011765
0.247059 0.913725 0.007843
0.262745 0.913725 0.003922
0.301961 0.913725 0.003922
0.352941 0.917647 0.003922
0.407843 0.913725 0.003922
0.454902 0.917647 0.000000
0.494118 0.917647 0.003922
0.517647 0.917647 0.007843
0.600000 0.913725 0.000000
0.623529 0.913725 0.000000
0.658824 0.909804 0.000000
0.705882 0.913725 0.000000
0.760784 0.909804 0.000000
0.803922 0.909804 0.000000
0.843137 0.909804 0.000000
0.866667 0.905882 0.000000
0.905882 0.917647 0.011765
0.913725 0.913725 0.000000
0.988235 0.917647 0.015686
0.000000 0.960784 0.000000
0.015686 0.952941 0.007843
0.090196 0.929412 0.058824
0.109804 0.972549 0.000000
0.145098 0.964706 0.019608
0.211765 0.937255 0.000000
0.243137 0.945098 0.003922
0.278431 0.949020 0.011765
0.329412 0.945098 0.000000
0.372549 0.941176 0.000000
0.423529 0.937255 0.000000
0.470588 0.945098 0.000000
0.490196 0.952941 0.003922
0.545098 0.956863 0.007843
0.564706 0.960784 0.011765
0.603922 0.960784 0.007843
0.654902 0.960784 0.011765
0.705882 0.960784 0.003922
0.760784 0.960784 0.007843
0.800000 0.960784 0.003922
0.811765 0.960784 0.000000
0.874510 0.949020 0.007843
0.882353 0.952941 0.000000
0.925490 0.968627 0.000000
0.980392 0.960784 0.000000
0.000000 0.992157 0.011765
0.027451 0.988235 0.003922
0.070588 1.000000 0.000000
0.078431 1.000000 0.000000
0.160784 1.000000 0.015686
0.180392 1.000000 0.011765
0.219608 1.000000 0.007843
0.270588 1.000000 0.011765
0.321569 1.000000 0.003922
0.372549 1.000000 0.007843
0.411765 1.000000 0.003922
0.431373 1.000000 0.000000
0.501961 1.000000 0.007843
0.525490 1.000000 0.007843
0.564706 1.000000 0.007843
0.611765 1.000000 0.007843
0.666667 1.000000 0.003922
0.717647 1.000000 0.003922
0.756863 1.000000 0.003922
0.776471 1.000000 0.000000
0.870588 1.000000 0.007843
0.894118 1.000000 0.007843
0.949020 1.000000 0.054902
0.968627 0.964706 0.062745
1.000000 0.843137 0.007843
0.035294 0.000000 0.007843
0.050980 0.000000 0.003922
0.090196 0.000000 0.007843
0.145098 0.000000 0.003922
0.188235 0.000000 0.003922
0.243137 0.000000 0.003922
0.282353 0.000000 0.003922
0.298039 0.000000 0.000000
0.376471 0.000000 0.031373
0.392157 0.000000 0.027451
0.431373 0.000000 0.031373
0.482353 0.000000 0.027451
0.533333 0.000000 0.027451
0.588235 0.000000 0.023529
0.623529 0.000000 0.027451
0.643137 0.000000 0.023529
0.701961 0.000000 0.000000
0.725490 0.000000 0.015686
0.768627 0.000000 0.015686
0.815686 0.000000 0.007843
0.862745 0.000000 0.000000
0.905882 0.000000 0.000000
0.952941 0.000000 0.003922
0.980392 0.000000 0.007843
0.988235 0.000000 0.027451
0.007843 0.031373 0.000000
0.082353 0.003922 0.039216
0.101961 0.015686 0.000000
0.129412 0.007843 0.031373
0.180392 0.011765 0.047059
0.192157 0.027451 0.000000
0.282353 0.007843 0.015686
0.298039 0.007843 0.003922
0.321569 0.007843 0.003922
0.360784 0.007843 0.007843
0.411765 0.011765 0.003922
0.462745 0.007843 0.007843
0.509804 0.007843 0.003922
0.549020 0.007843 0.000000
0.572549 0.007843 0.003922
0.643137 0.007843 0.000000
0.670588 0.011765 0.011765
0.713725 0.015686 0.015686
0.756863 0.015686 0.007843
0.803922 0.003922 0.000000
0.843137 0.000000 0.000000
0.890196 0.007843 0.000000
0.913725 0.015686 0.003922
0.933333 0.011765 0.000000
1.000000 0.003922 0.027451
0.000000 0.039216 0.000000
0.047059 0.027451 0.015686
0.090196 0.054902 0.000000
0.098039 0.047059 0.023529
0.184314 0.043137 0.000000
0.192157 0.035294 0.003922
0.250980 0.039216 0.000000
0.270588 0.043137 0.000000
0.309804 0.043137 0.000000
0.356863 0.043137 0.000000
0.411765 0.043137 0.000000
0.466667 0.043137 0.000000
0.501961 0.047059 0.000000
0.521569 0.043137 0.000000
0.596078 0.039216 0.023529
0.615686 0.035294 0.019608
0.654902 0.039216 0.019608
0.698039 0.035294 0.015686
0.752941 0.035294 0.019608
0.800000 0.035294 0.011765
0.839216 0.035294 0.015686
0.862745 0.031373 0.015686
0.917647 0.043137 0.011765
0.917647 0.043137 0.000000
0.996078 0.047059 0.003922
0.000000 0.090196 0.000000
0.023529 0.082353 0.000000
0.101961 0.058824 0.050980
0.117647 0.101961 0.000000
0.152941 0.094118 0.011765
0.219608 0.082353 0.003922
0.243137 0.094118 0.011765
0.286275 0.098039 0.011765
0.337255 0.094118 0.011765
0.380392 0.086275 0.000000
0.427451 0.082353 0.000000
0.478431 0.090196 0.000000
0.498039 0.098039 0.007843
0.552941 0.086275 0.000000
0.576471 0.086275 0.000000
0.607843 0.090196 0.000000
0.658824 0.086275 0.000000
0.717647 0.090196 0.003922
0.760784 0.086275 0.000000
0.800000 0.086275 0.000000
0.819608 0.090196 0.000000
0.898039 0.086275 0.015686
0.909804 0.090196 0.000000
0.945098 0.109804 0.000000
1.000000 0.105882 0.000000
0.000000 0.133333 0.015686
0.054902 0.129412 0.019608
0.090196 0.145098 0.007843
0.105882 0.149020 0.000000
0.168627 0.125490 0.000000
0.188235 0.129412 0.000000
0.227451 0.133333 0.000000
0.274510 0.133333 0.000000
0.329412 0.133333 0.003922
0.380392 0.129412 0.000000
0.415686 0.129412 0.000000
0.439216 0.129412 0.000000
0.509804 0.129412 0.000000
0.533333 0.129412 0.000000
0.572549 0.129412 0.003922
0.615686 0.129412 0.000000
0.674510 0.129412 0.000000
0.717647 0.129412 0.000000
0.756863 0.129412 0.000000
0.784314 0.129412 0.000000
0.874510 0.054902 0.000000
0.925490 0.101961 0.000000
0.913725 0.156863 0.000000
0.847059 0.180392 0.000000
0.921569 0.254902 0.000000
0.000000 0.176471 0.035294
0.007843 0.180392 0.039216
0.043137 0.176471 0.031373
0.098039 0.176471 0.031373
0.149020 0.180392 0.035294
0.196078 0.176471 0.027451
0.235294 0.172549 0.031373
0.254902 0.176471 0.031373
0.325490 0.180392 0.007843
0.345098 0.180392 0.015686
0.384314 0.184314 0.015686
0.431373 0.184314 0.011765
0.486275 0.184314 0.011765
0.541176 0.184314 0.011765
0.572549 0.188235 0.011765
0.596078 0.184314 0.007843
0.658824 0.172549 0.031373
0.682353 0.180392 0.035294
0.729412 0.188235 0.047059
0.772549 0.184314 0.039216
0.819608 0.176471 0.031373
0.870588 0.172549 0.023529
0.909804 0.180392 0.031373
0.941176 0.188235 0.043137
1.000000 0.192157 0.039216
0.011765 0.239216 0.000000
0.086275 0.211765 0.050980
0.109804 0.219608 0.000000
0.141176 0.211765 0.047059
0.188235 0.219608 0.058824
0.196078 0.227451 0.000000
0.286275 0.215686 0.027451
0.313725 0.219608 0.031373
0.329412 0.219608 0.031373
0.368627 0.219608 0.027451
0.419608 0.223529 0.031373
0.470588 0.223529 0.023529
0.521569 0.223529 0.027451
0.560784 0.223529 0.023529
0.580392 0.219608 0.019608
0.650980 0.219608 0.027451
0.678431 0.223529 0.031373
0.725490 0.231373 0.035294
0.764706 0.223529 0.031373
0.811765 0.215686 0.019608
0.858824 0.215686 0.015686
0.901961 0.219608 0.019608
0.933333 0.227451 0.027451
0.945098 0.223529 0.011765
1.000000 0.219608 0.050980
0.000000 0.254902 0.000000
0.066667 0.239216 0.039216
0.105882 0.270588 0.011765
0.105882 0.258824 0.043137
0.192157 0.254902 0.000000
0.203922 0.247059 0.019608
0.262745 0.254902 0.023529
0.286275 0.250980 0.019608
0.317647 0.254902 0.019608
0.372549 0.254902 0.019608
0.427451 0.254902 0.015686
0.474510 0.254902 0.015686
0.513725 0.254902 0.015686
0.533333 0.258824 0.015686
0.580392 0.270588 0.011765
0.603922 0.270588 0.015686
0.639216 0.266667 0.015686
0.690196 0.266667 0.011765
0.745098 0.266667 0.011765
0.788235 0.266667 0.003922
0.827451 0.266667 0.007843
0.847059 0.262745 0.003922
0.925490 0.258824 0.027451
0.929412 0.254902 0.000000
1.000000 0.258824 0.023529
0.015686 0.298039 0.000000
0.035294 0.294118 0.015686
0.113725 0.270588 0.066667
0.133333 0.309804 0.000000
0.160784 0.305882 0.035294
0.207843 0.309804 0.023529
0.231373 0.317647 0.031373
0.278431 0.325490 0.035294
0.329412 0.321569 0.031373
0.368627 0.313725 0.027451
0.419608 0.309804 0.019608
0.462745 0.313725 0.027451
0.490196 0.325490 0.035294
0.564706 0.301961 0.023529
0.584314 0.301961 0.019608
0.623529 0.298039 0.023529
0.670588 0.301961 0.019608
0.725490 0.301961 0.019608
0.776471 0.301961 0.015686
0.815686 0.301961 0.019608
0.839216 0.301961 0.019608
0.909804 0.301961 0.039216
0.921569 0.309804 0.019608
0.960784 0.321569 0.011765
1.000000 0.317647 0.011765
0.007843 0.349020 0.043137
0.062745 0.341176 0.035294
0.105882 0.356863 0.027451
0.113725 0.360784 0.011765
0.180392 0.345098 0.023529
0.196078 0.345098 0.019608
0.235294 0.341176 0.023529
0.290196 0.341176 0.019608
0.337255 0.345098 0.019608
0.392157 0.345098 0.023529
0.431373 0.345098 0.019608
0.447059 0.345098 0.015686
0.525490 0.341176 0.019608
0.541176 0.341176 0.023529
0.580392 0.341176 0.023529
0.627451 0.345098 0.015686
0.682353 0.345098 0.019608
0.733333 0.345098 0.019608
0.772549 0.345098 0.019608
0.796078 0.345098 0.019608
0.780392 0.356863 0.011765
0.858824 0.368627 0.054902
0.901961 0.364706 0.058824
0.925490 0.372549 0.050980
1.000000 0.380392 0.007843
0.007843 0.400000 0.011765
0.027451 0.403922 0.011765
0.062745 0.400000 0.003922
0.117647 0.400000 0.007843
0.164706 0.400000 0.007843
0.215686 0.400000 0.000000
0.254902 0.400000 0.000000
0.274510 0.400000 0.003922
