OTIS.cube
#Generated with IWLTBAP LUT Generator
#Website: http://luts.iwltbap.com
TITLE "PHOTOSHOPLUT125_NEUTRAL125_OTIS"
#LUT size
LUT_3D_SIZE 5
#LUT data points
0.019608 0.000000 0.000000
0.266667 0.000000 0.000000
0.525490 0.000000 0.000000
0.760784 0.000000 0.000000
0.980392 0.000000 0.000000
0.000000 0.250980 0.000000
0.262745 0.227451 0.003922
0.501961 0.231373 0.000000
0.745098 0.243137 0.003922
0.996078 0.227451 0.023529
0.003922 0.462745 0.011765
0.270588 0.466667 0.031373
0.513725 0.466667 0.027451
0.756863 0.474510 0.011765
1.000000 0.466667 0.039216
0.007843 0.752941 0.000000
0.215686 0.752941 0.003922
0.474510 0.760784 0.003922
0.764706 0.752941 0.003922
0.996078 0.752941 0.000000
0.000000 0.992157 0.011765
0.219608 1.000000 0.007843
0.501961 1.000000 0.007843
0.756863 1.000000 0.003922
1.000000 0.843137 0.007843
0.011765 0.000000 0.254902
0.254902 0.000000 0.254902
0.501961 0.000000 0.254902
0.749020 0.000000 0.270588
0.992157 0.000000 0.274510
0.000000 0.227451 0.200000
0.239216 0.215686 0.231373
0.501961 0.211765 0.215686
0.737255 0.227451 0.227451
0.996078 0.211765 0.219608
0.000000 0.482353 0.184314
0.239216 0.474510 0.200000
0.498039 0.482353 0.203922
0.756863 0.470588 0.200000
0.984314 0.494118 0.243137
0.027451 0.737255 0.223529
0.227451 0.752941 0.239216
0.478431 0.752941 0.231373
0.741176 0.741176 0.223529
1.000000 0.745098 0.215686
0.000000 1.000000 0.262745
0.243137 1.000000 0.258824
0.509804 1.000000 0.247059
0.760784 1.000000 0.239216
1.000000 0.815686 0.270588
0.019608 0.000000 0.486275
0.274510 0.000000 0.486275
0.513725 0.000000 0.482353
0.745098 0.003922 0.505882
0.980392 0.000000 0.486275
0.011765 0.227451 0.478431
0.278431 0.207843 0.505882
0.513725 0.211765 0.494118
0.760784 0.223529 0.505882
1.000000 0.219608 0.509804
0.007843 0.478431 0.482353
0.258824 0.466667 0.498039
0.513725 0.478431 0.498039
0.756863 0.474510 0.490196
1.000000 0.470588 0.498039
0.000000 0.749020 0.439216
0.219608 0.752941 0.462745
0.478431 0.760784 0.470588
0.737255 0.745098 0.450980
0.984314 0.760784 0.443137
0.000000 1.000000 0.509804
0.223529 1.000000 0.490196
0.505882 1.000000 0.482353
0.764706 1.000000 0.490196
1.000000 0.878431 0.596078
0.000000 0.000000 0.772549
0.243137 0.000000 0.764706
0.482353 0.003922 0.733333
0.725490 0.011765 0.780392
1.000000 0.000000 0.796078
0.000000 0.231373 0.717647
0.270588 0.203922 0.745098
0.498039 0.200000 0.725490
0.749020 0.207843 0.788235
1.000000 0.215686 0.737255
0.000000 0.482353 0.729412
0.235294 0.474510 0.737255
0.486275 0.478431 0.733333
0.741176 0.478431 0.749020
0.996078 0.486275 0.760784
0.003922 0.764706 0.733333
0.215686 0.749020 0.733333
0.470588 0.752941 0.737255
0.737255 0.741176 0.717647
0.988235 0.764706 0.721569
0.000000 1.000000 0.752941
0.235294 1.000000 0.752941
0.501961 0.992157 0.733333
0.749020 0.996078 0.721569
1.000000 0.901961 0.839216
0.000000 0.000000 0.992157
0.235294 0.019608 1.000000
0.498039 0.000000 0.992157
0.737255 0.019608 1.000000
1.000000 0.000000 1.000000
0.007843 0.254902 0.870588
0.254902 0.227451 0.976471
0.513725 0.207843 0.980392
0.764706 0.219608 1.000000
0.992157 0.203922 1.000000
0.047059 0.509804 0.925490
0.266667 0.501961 0.980392
0.517647 0.470588 0.972549
0.784314 0.466667 1.000000
0.972549 0.494118 1.000000
0.070588 0.717647 0.937255
0.235294 0.725490 0.984314
0.482353 0.725490 1.000000
0.764706 0.741176 0.992157
0.913725 0.729412 1.000000
0.156863 1.000000 0.921569
0.239216 1.000000 0.988235
0.529412 1.000000 0.976471
0.741176 1.000000 1.000000
1.000000 0.921569 1.000000
