OTIS.cube
#Generated with IWLTBAP LUT Generator
#Website: http://luts.iwltbap.com
TITLE "PHOTOSHOPLUT125_NEUTRAL125_OTIS"
#LUT size
LUT_3D_SIZE 9
#LUT data points
0.019608 0.000000 0.000000
0.129412 0.000000 0.000000
0.266667 0.000000 0.000000
0.384314 0.000000 0.000000
0.525490 0.000000 0.000000
0.635294 0.000000 0.000000
0.760784 0.000000 0.000000
0.898039 0.000000 0.000000
0.980392 0.000000 0.000000
0.019608 0.098039 0.000000
0.137255 0.109804 0.000000
0.235294 0.098039 0.000000
0.368627 0.090196 0.000000
0.490196 0.101961 0.000000
0.623529 0.094118 0.000000
0.772549 0.094118 0.000000
0.898039 0.082353 0.000000
0.996078 0.098039 0.000000
0.000000 0.250980 0.000000
0.109804 0.219608 0.019608
0.262745 0.227451 0.003922
0.345098 0.231373 0.003922
0.501961 0.231373 0.000000
0.623529 0.231373 0.000000
0.745098 0.243137 0.003922
0.874510 0.231373 0.000000
0.996078 0.227451 0.023529
0.000000 0.356863 0.007843
0.086275 0.368627 0.000000
0.211765 0.356863 0.000000
0.368627 0.356863 0.000000
0.494118 0.349020 0.000000
0.600000 0.352941 0.000000
0.741176 0.352941 0.000000
0.925490 0.388235 0.082353
0.964706 0.372549 0.000000
0.003922 0.462745 0.011765
0.105882 0.470588 0.054902
0.270588 0.466667 0.031373
0.372549 0.466667 0.027451
0.513725 0.466667 0.027451
0.619608 0.474510 0.023529
0.756863 0.474510 0.011765
0.866667 0.470588 0.007843
1.000000 0.466667 0.039216
0.000000 0.615686 0.000000
0.074510 0.615686 0.000000
0.215686 0.611765 0.000000
0.317647 0.611765 0.000000
0.462745 0.611765 0.000000
0.568627 0.607843 0.000000
0.709804 0.619608 0.007843
0.843137 0.607843 0.000000
0.968627 0.619608 0.007843
0.007843 0.752941 0.000000
0.125490 0.764706 0.000000
0.215686 0.752941 0.003922
0.352941 0.749020 0.000000
0.474510 0.760784 0.003922
0.611765 0.749020 0.003922
0.764706 0.752941 0.003922
0.886275 0.737255 0.011765
0.996078 0.752941 0.000000
0.000000 0.886275 0.000000
0.105882 0.862745 0.019608
0.254902 0.862745 0.007843
0.341176 0.866667 0.000000
0.490196 0.866667 0.000000
0.619608 0.862745 0.000000
0.737255 0.870588 0.003922
0.874510 0.866667 0.000000
1.000000 0.878431 0.043137
0.000000 0.992157 0.011765
0.078431 1.000000 0.000000
0.219608 1.000000 0.007843
0.372549 1.000000 0.007843
0.501961 1.000000 0.007843
0.611765 1.000000 0.007843
0.756863 1.000000 0.003922
0.894118 1.000000 0.007843
1.000000 0.843137 0.007843
0.007843 0.015686 0.113725
0.113725 0.011765 0.109804
0.254902 0.011765 0.109804
0.356863 0.003922 0.113725
0.494118 0.000000 0.109804
0.611765 0.007843 0.117647
0.737255 0.003922 0.109804
0.870588 0.000000 0.094118
0.992157 0.000000 0.117647
0.023529 0.082353 0.070588
0.125490 0.094118 0.050980
0.247059 0.094118 0.098039
0.384314 0.094118 0.098039
0.494118 0.090196 0.094118
0.631373 0.098039 0.105882
0.772549 0.082353 0.090196
0.905882 0.078431 0.105882
1.000000 0.090196 0.078431
0.007843 0.227451 0.090196
0.141176 0.207843 0.145098
0.282353 0.200000 0.117647
0.384314 0.219608 0.133333
0.521569 0.207843 0.117647
0.643137 0.203922 0.117647
0.764706 0.215686 0.125490
0.901961 0.211765 0.121569
1.000000 0.215686 0.129412
0.011765 0.337255 0.133333
0.117647 0.345098 0.105882
0.254902 0.345098 0.125490
0.392157 0.325490 0.105882
0.529412 0.337255 0.117647
0.639216 0.345098 0.121569
0.772549 0.337255 0.117647
0.905882 0.360784 0.145098
1.000000 0.400000 0.086275
0.000000 0.482353 0.066667
0.074510 0.482353 0.094118
0.247059 0.474510 0.074510
0.364706 0.486275 0.082353
0.501961 0.482353 0.082353
0.615686 0.482353 0.090196
0.749020 0.478431 0.074510
0.866667 0.490196 0.086275
1.000000 0.490196 0.105882
0.031373 0.607843 0.086275
0.137255 0.607843 0.082353
0.278431 0.603922 0.078431
0.384314 0.607843 0.086275
0.521569 0.607843 0.082353
0.643137 0.615686 0.094118
0.729412 0.619608 0.129412
0.870588 0.603922 0.113725
0.960784 0.623529 0.086275
0.000000 0.752941 0.074510
0.109804 0.760784 0.039216
0.227451 0.749020 0.086275
0.364706 0.745098 0.086275
0.478431 0.760784 0.094118
0.603922 0.756863 0.094118
0.745098 0.741176 0.074510
0.882353 0.745098 0.094118
0.992157 0.756863 0.066667
0.000000 0.878431 0.078431
0.117647 0.862745 0.125490
0.258824 0.862745 0.109804
0.360784 0.878431 0.113725
0.501961 0.862745 0.098039
0.627451 0.862745 0.109804
0.745098 0.874510 0.117647
0.878431 0.866667 0.109804
1.000000 0.874510 0.109804
0.000000 0.996078 0.125490
0.098039 1.000000 0.098039
0.235294 1.000000 0.117647
0.372549 0.988235 0.098039
0.501961 0.992157 0.105882
0.623529 1.000000 0.113725
0.752941 0.992157 0.098039
0.886275 1.000000 0.066667
1.000000 0.823529 0.086275
0.011765 0.000000 0.254902
0.121569 0.000000 0.262745
0.254902 0.000000 0.254902
0.368627 0.000000 0.270588
0.501961 0.000000 0.254902
0.623529 0.000000 0.262745
0.749020 0.000000 0.270588
0.882353 0.000000 0.247059
0.992157 0.000000 0.274510
0.027451 0.098039 0.254902
0.129412 0.101961 0.231373
0.266667 0.101961 0.282353
0.400000 0.098039 0.278431
0.521569 0.105882 0.286275
0.643137 0.105882 0.286275
0.776471 0.086275 0.266667
0.917647 0.086275 0.286275
1.000000 0.101961 0.258824
0.000000 0.227451 0.200000
0.098039 0.203922 0.247059
0.239216 0.215686 0.231373
0.360784 0.227451 0.231373
0.501961 0.211765 0.215686
0.619608 0.215686 0.219608
0.737255 0.227451 0.227451
0.870588 0.219608 0.219608
0.996078 0.211765 0.219608
0.000000 0.349020 0.243137
0.086275 0.360784 0.215686
0.227451 0.360784 0.223529
0.364706 0.349020 0.203922
0.490196 0.349020 0.223529
0.611765 0.356863 0.231373
0.741176 0.349020 0.215686
0.909804 0.356863 0.239216
1.000000 0.356863 0.180392
0.000000 0.482353 0.184314
0.070588 0.482353 0.211765
0.239216 0.474510 0.200000
0.360784 0.482353 0.207843
0.498039 0.482353 0.203922
0.627451 0.482353 0.207843
0.756863 0.470588 0.200000
0.878431 0.482353 0.207843
0.984314 0.494118 0.243137
0.015686 0.607843 0.243137
0.125490 0.615686 0.247059
0.258824 0.607843 0.239216
0.368627 0.607843 0.243137
0.505882 0.603922 0.243137
0.627451 0.615686 0.250980
0.752941 0.615686 0.254902
0.890196 0.603922 0.231373
0.968627 0.615686 0.239216
0.027451 0.737255 0.223529
0.149020 0.741176 0.188235
0.227451 0.752941 0.239216
0.364706 0.745098 0.223529
0.478431 0.752941 0.231373
0.607843 0.752941 0.239216
0.741176 0.741176 0.223529
0.905882 0.733333 0.250980
1.000000 0.745098 0.215686
0.003922 0.878431 0.215686
0.117647 0.866667 0.258824
0.250980 0.870588 0.247059
0.352941 0.882353 0.247059
0.490196 0.870588 0.223529
0.627451 0.870588 0.239216
0.745098 0.882353 0.247059
0.886275 0.878431 0.243137
1.000000 0.890196 0.258824
0.000000 1.000000 0.262745
0.094118 1.000000 0.235294
0.243137 1.000000 0.258824
0.372549 1.000000 0.239216
0.509804 1.000000 0.247059
0.627451 1.000000 0.250980
0.760784 1.000000 0.239216
0.803922 1.000000 0.223529
1.000000 0.815686 0.270588
0.019608 0.000000 0.380392
0.141176 0.007843 0.388235
0.270588 0.000000 0.372549
0.396078 0.000000 0.368627
0.529412 0.000000 0.356863
0.650980 0.000000 0.364706
0.745098 0.000000 0.372549
0.886275 0.000000 0.356863
0.984314 0.000000 0.368627
0.007843 0.094118 0.321569
0.113725 0.098039 0.298039
0.247059 0.094118 0.349020
0.380392 0.086275 0.341176
0.498039 0.105882 0.356863
0.623529 0.101961 0.356863
0.764706 0.086275 0.337255
0.901961 0.078431 0.356863
1.000000 0.094118 0.325490
0.015686 0.243137 0.321569
0.121569 0.223529 0.368627
0.258824 0.231373 0.352941
0.356863 0.231373 0.384314
0.498039 0.215686 0.364706
0.623529 0.215686 0.352941
0.741176 0.227451 0.360784
0.882353 0.223529 0.352941
1.000000 0.235294 0.360784
0.000000 0.352941 0.384314
0.101961 0.372549 0.352941
0.243137 0.364706 0.372549
0.376471 0.352941 0.352941
0.525490 0.345098 0.356863
0.639216 0.356863 0.368627
0.776471 0.352941 0.352941
0.850980 0.360784 0.431373
1.000000 0.356863 0.325490
0.007843 0.478431 0.368627
0.090196 0.470588 0.392157
0.258824 0.470588 0.380392
0.380392 0.478431 0.392157
0.513725 0.474510 0.376471
0.623529 0.482353 0.349020
0.764706 0.478431 0.349020
0.882353 0.490196 0.356863
1.000000 0.490196 0.396078
0.027451 0.592157 0.352941
0.145098 0.600000 0.360784
0.278431 0.592157 0.345098
0.400000 0.603922 0.360784
0.533333 0.596078 0.349020
0.650980 0.607843 0.356863
0.780392 0.607843 0.360784
0.913725 0.596078 0.341176
0.984314 0.635294 0.376471
0.019608 0.752941 0.349020
0.129412 0.756863 0.325490
0.254902 0.745098 0.384314
0.388235 0.737255 0.368627
0.509804 0.749020 0.376471
0.650980 0.756863 0.384314
0.784314 0.745098 0.360784
0.909804 0.729412 0.384314
1.000000 0.741176 0.352941
0.000000 0.878431 0.309804
0.090196 0.854902 0.352941
0.231373 0.866667 0.337255
0.341176 0.886275 0.333333
0.482353 0.870588 0.313725
0.611765 0.866667 0.309804
0.729412 0.874510 0.317647
0.858824 0.866667 0.305882
0.968627 0.862745 0.301961
0.000000 0.992157 0.345098
0.074510 1.000000 0.305882
0.200000 0.984314 0.313725
0.352941 0.988235 0.309804
0.478431 0.988235 0.317647
0.588235 0.988235 0.313725
0.729412 0.992157 0.305882
0.858824 0.956863 0.352941
1.000000 0.858824 0.466667
0.019608 0.000000 0.486275
0.141176 0.000000 0.494118
0.274510 0.000000 0.486275
0.380392 0.000000 0.494118
0.513725 0.000000 0.482353
0.635294 0.000000 0.490196
0.745098 0.003922 0.505882
0.874510 0.000000 0.478431
0.980392 0.000000 0.486275
0.007843 0.090196 0.447059
0.121569 0.105882 0.435294
0.243137 0.098039 0.474510
0.380392 0.090196 0.470588
0.494118 0.101961 0.478431
0.619608 0.101961 0.490196
0.760784 0.086275 0.470588
0.898039 0.090196 0.486275
1.000000 0.098039 0.458824
0.011765 0.227451 0.478431
0.129412 0.203922 0.513725
0.278431 0.207843 0.505882
0.372549 0.223529 0.509804
0.513725 0.211765 0.494118
0.650980 0.211765 0.501961
0.760784 0.223529 0.505882
0.898039 0.215686 0.498039
1.000000 0.219608 0.509804
0.007843 0.337255 0.517647
0.113725 0.349020 0.490196
0.250980 0.349020 0.505882
0.392157 0.333333 0.486275
0.517647 0.333333 0.498039
0.639216 0.345098 0.505882
0.772549 0.341176 0.494118
0.909804 0.356863 0.494118
0.921569 0.337255 0.454902
0.007843 0.478431 0.482353
0.086275 0.470588 0.505882
0.258824 0.466667 0.498039
0.372549 0.478431 0.505882
0.513725 0.478431 0.498039
0.623529 0.478431 0.505882
0.756863 0.474510 0.490196
0.874510 0.478431 0.494118
1.000000 0.470588 0.498039
0.000000 0.623529 0.462745
0.105882 0.635294 0.474510
0.239216 0.623529 0.462745
0.349020 0.627451 0.462745
0.482353 0.619608 0.454902
0.600000 0.635294 0.466667
0.752941 0.627451 0.466667
0.894118 0.615686 0.450980
0.956863 0.631373 0.474510
0.000000 0.749020 0.439216
0.101961 0.768627 0.423529
0.219608 0.752941 0.462745
0.356863 0.749020 0.462745
0.478431 0.760784 0.470588
0.600000 0.756863 0.470588
0.737255 0.745098 0.450980
0.878431 0.741176 0.474510
0.984314 0.760784 0.443137
0.000000 0.890196 0.466667
0.105882 0.870588 0.509804
0.243137 0.874510 0.498039
0.364706 0.890196 0.501961
0.501961 0.878431 0.486275
0.615686 0.870588 0.478431
0.737255 0.878431 0.486275
0.870588 0.874510 0.474510
1.000000 0.894118 0.494118
0.000000 1.000000 0.509804
0.101961 1.000000 0.478431
0.223529 1.000000 0.490196
0.360784 0.992157 0.474510
0.505882 1.000000 0.482353
0.623529 1.000000 0.490196
0.764706 1.000000 0.490196
0.792157 0.964706 0.478431
1.000000 0.878431 0.596078
0.015686 0.000000 0.635294
0.133333 0.000000 0.643137
0.266667 0.000000 0.631373
0.380392 0.000000 0.643137
0.517647 0.000000 0.635294
0.635294 0.000000 0.643137
0.764706 0.000000 0.650980
0.894118 0.000000 0.627451
0.972549 0.000000 0.678431
0.003922 0.090196 0.619608
0.117647 0.098039 0.600000
0.250980 0.090196 0.643137
0.388235 0.086275 0.635294
0.505882 0.098039 0.643137
0.627451 0.090196 0.647059
0.760784 0.074510 0.627451
0.890196 0.082353 0.650980
0.996078 0.094118 0.619608
0.015686 0.231373 0.556863
0.137255 0.207843 0.607843
0.290196 0.211765 0.592157
0.376471 0.227451 0.623529
0.513725 0.215686 0.607843
0.658824 0.207843 0.611765
0.772549 0.215686 0.615686
0.909804 0.207843 0.600000
1.000000 0.211765 0.607843
0.011765 0.321569 0.615686
0.113725 0.341176 0.588235
0.250980 0.329412 0.600000
0.396078 0.329412 0.596078
0.509804 0.325490 0.592157
0.631373 0.337255 0.600000
0.768627 0.333333 0.600000
0.933333 0.403922 0.674510
0.925490 0.411765 0.568627
0.000000 0.490196 0.588235
0.078431 0.490196 0.615686
0.235294 0.482353 0.603922
0.356863 0.494118 0.611765
0.490196 0.486275 0.607843
0.611765 0.490196 0.611765
0.745098 0.482353 0.603922
0.862745 0.498039 0.611765
0.984314 0.501961 0.615686
0.000000 0.596078 0.584314
0.098039 0.611765 0.592157
0.231373 0.603922 0.588235
0.349020 0.607843 0.600000
0.482353 0.603922 0.584314
0.603922 0.611765 0.592157
0.729412 0.611765 0.603922
0.862745 0.596078 0.584314
0.968627 0.619608 0.627451
0.011765 0.756863 0.584314
0.125490 0.760784 0.564706
0.247059 0.733333 0.592157
0.388235 0.729412 0.592157
0.505882 0.741176 0.600000
0.639216 0.745098 0.607843
0.772549 0.733333 0.592157
0.894118 0.741176 0.611765
1.000000 0.756863 0.584314
0.000000 0.886275 0.588235
0.125490 0.866667 0.639216
0.282353 0.870588 0.623529
0.364706 0.882353 0.647059
0.501961 0.870588 0.627451
0.639216 0.866667 0.635294
0.760784 0.878431 0.643137
0.890196 0.866667 0.623529
1.000000 0.870588 0.627451
0.000000 0.988235 0.635294
0.098039 1.000000 0.611765
0.235294 0.992157 0.627451
0.384314 0.992157 0.623529
0.501961 0.988235 0.619608
0.619608 1.000000 0.627451
0.752941 0.992157 0.619608
0.862745 0.992157 0.650980
1.000000 0.941176 0.698039
0.000000 0.000000 0.772549
0.109804 0.007843 0.780392
0.243137 0.000000 0.764706
0.349020 0.011765 0.745098
0.482353 0.003922 0.733333
0.603922 0.015686 0.741176
0.725490 0.011765 0.780392
0.862745 0.000000 0.756863
1.000000 0.000000 0.796078
0.031373 0.101961 0.760784
0.137255 0.113725 0.741176
0.266667 0.098039 0.792157
0.400000 0.090196 0.784314
0.521569 0.101961 0.792157
0.635294 0.098039 0.788235
0.772549 0.078431 0.768627
0.925490 0.090196 0.796078
1.000000 0.105882 0.772549
0.000000 0.231373 0.717647
0.113725 0.203922 0.752941
0.270588 0.203922 0.745098
0.360784 0.211765 0.741176
0.498039 0.200000 0.725490
0.631373 0.200000 0.784314
0.749020 0.207843 0.788235
0.882353 0.200000 0.776471
1.000000 0.215686 0.737255
0.000000 0.333333 0.749020
0.101961 0.349020 0.729412
0.243137 0.349020 0.752941
0.384314 0.337255 0.737255
0.501961 0.337255 0.737255
0.623529 0.345098 0.745098
0.756863 0.341176 0.733333
0.937255 0.345098 0.800000
0.984314 0.388235 0.780392
0.000000 0.482353 0.729412
0.070588 0.482353 0.749020
0.235294 0.474510 0.737255
0.352941 0.482353 0.745098
0.486275 0.478431 0.733333
0.603922 0.482353 0.749020
0.741176 0.478431 0.749020
0.862745 0.490196 0.756863
0.996078 0.486275 0.760784
0.000000 0.603922 0.701961
0.105882 0.615686 0.709804
0.235294 0.607843 0.694118
0.352941 0.603922 0.745098
0.486275 0.600000 0.733333
0.600000 0.611765 0.741176
0.729412 0.619608 0.709804
0.858824 0.603922 0.690196
0.968627 0.643137 0.752941
0.003922 0.764706 0.733333
0.101961 0.772549 0.709804
0.215686 0.749020 0.733333
0.349020 0.745098 0.729412
0.470588 0.752941 0.737255
0.600000 0.760784 0.745098
0.737255 0.741176 0.717647
0.886275 0.752941 0.749020
0.988235 0.764706 0.721569
0.000000 0.898039 0.713725
0.121569 0.866667 0.756863
0.270588 0.874510 0.741176
0.368627 0.882353 0.756863
0.509804 0.866667 0.737255
0.647059 0.870588 0.733333
0.760784 0.878431 0.737255
0.894118 0.874510 0.725490
1.000000 0.886275 0.749020
0.000000 1.000000 0.752941
0.101961 1.000000 0.721569
0.235294 1.000000 0.752941
0.376471 0.988235 0.733333
0.501961 0.992157 0.733333
0.619608 1.000000 0.737255
0.749020 0.996078 0.721569
0.796078 1.000000 0.698039
1.000000 0.901961 0.839216
0.000000 0.000000 0.847059
0.086275 0.003922 0.854902
0.223529 0.000000 0.850980
0.337255 0.000000 0.854902
0.482353 0.000000 0.858824
0.588235 0.000000 0.854902
0.717647 0.007843 0.866667
0.858824 0.000000 0.843137
0.964706 0.000000 0.909804
0.003922 0.098039 0.858824
0.105882 0.105882 0.835294
0.239216 0.098039 0.874510
0.376471 0.094118 0.862745
0.498039 0.105882 0.874510
0.611765 0.094118 0.870588
0.749020 0.082353 0.854902
0.890196 0.086275 0.874510
0.996078 0.098039 0.847059
0.023529 0.235294 0.815686
0.141176 0.215686 0.862745
0.278431 0.223529 0.843137
0.384314 0.219608 0.886275
0.521569 0.200000 0.866667
0.647059 0.203922 0.870588
0.764706 0.215686 0.878431
0.898039 0.211765 0.866667
1.000000 0.200000 0.866667
0.000000 0.325490 0.874510
0.109804 0.341176 0.850980
0.250980 0.341176 0.882353
0.388235 0.325490 0.854902
0.513725 0.325490 0.866667
0.635294 0.333333 0.874510
0.768627 0.329412 0.870588
0.894118 0.376471 0.843137
1.000000 0.403922 0.882353
0.023529 0.486275 0.862745
0.109804 0.486275 0.886275
0.262745 0.470588 0.870588
0.384314 0.482353 0.878431
0.521569 0.482353 0.870588
0.627451 0.478431 0.874510
0.764706 0.474510 0.862745
0.882353 0.482353 0.870588
1.000000 0.486275 0.878431
0.000000 0.611765 0.850980
0.117647 0.619608 0.858824
0.254902 0.619608 0.858824
0.360784 0.619608 0.858824
0.501961 0.619608 0.862745
0.611765 0.619608 0.858824
0.745098 0.635294 0.866667
0.886275 0.619608 0.850980
0.960784 0.635294 0.839216
0.015686 0.760784 0.862745
0.117647 0.768627 0.831373
0.227451 0.749020 0.870588
0.360784 0.745098 0.858824
0.482353 0.752941 0.866667
0.615686 0.756863 0.882353
0.749020 0.745098 0.866667
0.901961 0.745098 0.890196
1.000000 0.756863 0.858824
0.000000 0.866667 0.843137
0.094118 0.850980 0.886275
0.231373 0.854902 0.870588
0.345098 0.882353 0.843137
0.478431 0.870588 0.823529
0.607843 0.870588 0.835294
0.725490 0.882353 0.847059
0.862745 0.874510 0.839216
0.968627 0.862745 0.819608
0.000000 0.984314 0.847059
0.074510 1.000000 0.819608
0.211765 1.000000 0.847059
0.345098 0.992157 0.827451
0.474510 0.996078 0.827451
0.592157 1.000000 0.835294
0.729412 1.000000 0.827451
0.807843 0.941176 0.811765
1.000000 0.913725 0.941176
0.000000 0.000000 0.992157
0.098039 0.007843 1.000000
0.235294 0.019608 1.000000
0.341176 0.000000 0.980392
0.498039 0.000000 0.992157
0.619608 0.011765 1.000000
0.737255 0.019608 1.000000
0.886275 0.027451 1.000000
1.000000 0.000000 1.000000
0.000000 0.098039 0.933333
0.105882 0.070588 0.960784
0.235294 0.086275 1.000000
0.376471 0.101961 1.000000
0.486275 0.121569 1.000000
0.631373 0.078431 0.976471
0.780392 0.094118 0.984314
0.905882 0.101961 1.000000
1.000000 0.070588 1.000000
0.007843 0.254902 0.870588
0.082353 0.243137 0.949020
0.254902 0.227451 0.976471
0.356863 0.227451 0.992157
0.513725 0.207843 0.980392
0.670588 0.227451 1.000000
0.764706 0.219608 1.000000
0.890196 0.211765 1.000000
0.992157 0.203922 1.000000
0.000000 0.376471 0.929412
0.113725 0.368627 0.972549
0.235294 0.345098 0.976471
0.380392 0.341176 0.972549
0.521569 0.356863 1.000000
0.619608 0.352941 1.000000
0.745098 0.345098 1.000000
0.866667 0.337255 0.984314
0.956863 0.368627 0.984314
0.047059 0.509804 0.925490
0.125490 0.474510 0.968627
0.266667 0.501961 0.980392
0.376471 0.486275 0.976471
0.517647 0.470588 0.972549
0.643137 0.478431 1.000000
0.784314 0.466667 1.000000
0.886275 0.462745 1.000000
0.972549 0.494118 1.000000
0.011765 0.603922 0.952941
0.125490 0.607843 0.972549
0.278431 0.619608 1.000000
0.345098 0.615686 1.000000
0.494118 0.615686 1.000000
0.607843 0.615686 1.000000
0.729412 0.611765 0.949020
0.874510 0.603922 0.960784
0.949020 0.623529 1.000000
0.070588 0.717647 0.937255
0.070588 0.745098 0.988235
0.235294 0.725490 0.984314
0.376471 0.721569 1.000000
0.482353 0.725490 1.000000
0.600000 0.737255 0.964706
0.764706 0.741176 0.992157
0.913725 0.737255 1.000000
0.913725 0.729412 1.000000
0.152941 0.854902 0.972549
0.113725 0.874510 0.980392
0.231373 0.898039 1.000000
0.372549 0.874510 0.972549
0.490196 0.878431 0.992157
0.717647 0.858824 0.960784
0.811765 0.866667 0.980392
0.929412 0.870588 1.000000
0.749020 0.878431 1.000000
0.156863 1.000000 0.921569
0.082353 1.000000 0.945098
0.239216 1.000000 0.988235
0.360784 1.000000 1.000000
0.529412 1.000000 0.976471
0.619608 1.000000 0.996078
0.741176 1.000000 1.000000
0.894118 0.980392 0.968627
1.000000 0.921569 1.000000
